X:1
T:Bologna, 87.87 D
T:Bologna, 87.87 D
T:Robert Lowry, 1884
T:Public Domain Courtesy of the Cyber Hymnal™
C:Robert Lowry, 1884
Z:Public Domain
Z:Courtesy of the Cyber Hymnal™
%%score ( 1 2 ) ( 3 4 )
L:1/8
Q:1/4=109
M:4/4
K:D
V:1 treble 
V:2 treble 
V:3 bass 
V:4 bass 
V:1
 [DF][EG] | [FA]2 [FA]2 [FA]2 [FA]2 | [Fd]4 [FA]2 [DF][EG] | [FA]2 [FA]2 [EG]2 [CE]2 | %4
 [DF]6 [DF][EG] | [FA]2 [FA]2 [FA]2 [FA]2 | [Fd]4 [FA]2 [EA][FB] | [Ec]2 [CA]2 [CE]2 [D^G]2 | %8
 [CA]6 [EA][EA] | [Ge]2 [Gc]2 [GB]2 [GA]2 | [FA]4 [Fd]2 [Fd][Fd] | [Fd]2 [Fc]2 [FB]2 [F^A]2 | %12
 [FB]6 [Gc][Gc] | [Fd]2 [FA]2 [FA]2 [Fd]2 | [Ge]2 [Bd]2 [Ac]2 [GB]2 | [FA]2 [DF]2 [EG]2 [CE]2 | %16
 D6 |] %17
V:2
 x2 | x8 | x8 | x8 | x8 | x8 | x8 | x8 | x8 | x8 | x8 | x8 | x8 | x8 | x8 | x8 | D6 |] %17
V:3
 [D,A,][D,A,] | [D,A,]2 [D,A,]2 [D,A,]2 [D,A,]2 | [D,A,]4 [D,A,]2 [D,A,][D,A,] | %3
 [D,A,]2 [D,A,]2 [A,,A,]2 [A,,A,]2 | [D,A,]6 [D,A,][D,A,] | [D,D]2 [D,D]2 [D,D]2 [D,D]2 | %6
 [D,A,]4 [D,D]2 [C,A,][D,A,] | [E,A,]2 [E,A,]2 [E,A,]2 [E,A,]2 | [A,,A,]6 [A,C][A,C] | %9
 [A,C]2 [A,E]2 [A,D]2 [A,C]2 | [D,D]4 [D,A,]2 [B,,B,][B,,B,] | [F,B,]2 [F,^A,]2 [F,D]2 [F,C]2 | %12
 [B,,D]6 [A,,A,][A,,A,] | [D,A,]2 [D,D]2 [D,D]2 [D,A,]2 | [G,B,]2 [G,D]2 [G,D]2 [G,D]2 | %15
 [A,D]2 A,2 [A,,A,]2 [A,,G,]2 | [D,F,]6 |] %17
V:4
 x2 | x8 | x8 | x8 | x8 | x8 | x8 | x8 | x8 | x8 | x8 | x8 | x8 | x8 | x8 | x2 A,2 x4 | x6 |] %17

